status/symbolic/network-idle-symbolic.svg

<?xml version="1.0" encoding="UTF-8" standalone="no"?>
<svg xmlns:dc="http://purl.org/dc/elements/1.1/" xmlns:cc="http://creativecommons.org/ns#" xmlns:rdf="http://www.w3.org/1999/02/22-rdf-syntax-ns#" xmlns:svg="http://www.w3.org/2000/svg" xmlns="http://www.w3.org/2000/svg" xmlns:sodipodi="http://sodipodi.sourceforge.net/DTD/sodipodi-0.dtd" xmlns:inkscape="http://www.inkscape.org/namespaces/inkscape" height="16" width="16" version="1.1" id="svg6" sodipodi:docname="network-idle-symbolic.svg" inkscape:version="0.92.3 (2405546, 2018-03-11)">
  <metadata id="metadata12">
    <rdf:RDF>
      <cc:Work rdf:about="">
        <dc:format>image/svg+xml</dc:format>
        <dc:type rdf:resource="http://purl.org/dc/dcmitype/StillImage" />
      </cc:Work>
    </rdf:RDF>
  </metadata>
  <defs id="defs10" />
  <sodipodi:namedview pagecolor="#ffffff" bordercolor="#666666" borderopacity="1" objecttolerance="10" gridtolerance="10" guidetolerance="10" inkscape:pageopacity="0" inkscape:pageshadow="2" inkscape:window-width="1920" inkscape:window-height="962" id="namedview8" showgrid="false" inkscape:zoom="14.75" inkscape:cx="-1.1186441" inkscape:cy="7.4576271" inkscape:window-x="0" inkscape:window-y="30" inkscape:window-maximized="1" inkscape:current-layer="svg6" />
  <path id="rect824" d="m 1.000034,3 v 9 h 1 v 1 h 1 v 1 h 9 v -1 h 1 v -1 h 1 V 3 Z m 1,1 h 1 v 3 2 h 2 V 7 4 h 1.5 V 7 9 H 8.5098 V 7 H 8.5 V 4 H 10 v 3 2 h 2 V 7 4 h 1 v 7 h -1 v 1 h -1 v 1 H 4 V 12 H 3 V 11 H 2 Z" style="opacity:1;vector-effect:none;fill:#676767;fill-opacity:0.34901962;stroke:none;stroke-width:1;stroke-linecap:butt;stroke-linejoin:bevel;stroke-miterlimit:4;stroke-dasharray:none;stroke-dashoffset:0;stroke-opacity:1;paint-order:normal" inkscape:connector-curvature="0" />
</svg>

<?xml version="1.0" encoding="UTF-8" standalone="no"?>
<svg xmlns:dc="http://purl.org/dc/elements/1.1/" xmlns:cc="http://creativecommons.org/ns#" xmlns:rdf="http://www.w3.org/1999/02/22-rdf-syntax-ns#" xmlns:svg="http://www.w3.org/2000/svg" xmlns="http://www.w3.org/2000/svg" id="svg6" version="1.1" width="16" height="16">
  <metadata id="metadata12">
    <rdf:RDF>
      <cc:Work rdf:about="">
        <dc:format>image/svg+xml</dc:format>
        <dc:type rdf:resource="http://purl.org/dc/dcmitype/StillImage" />
      </cc:Work>
    </rdf:RDF>
  </metadata>
  <defs id="defs10" />
  <path id="rect824" d="M 1 3 L 1 12 L 2 12 L 2 13 L 3 13 L 3 14 L 12 14 L 12 13 L 13 13 L 13 12 L 14 12 L 14 3 L 1 3 z M 2 4 L 3 4 L 3 7 L 4 7 L 4 4 L 5 4 L 5 7 L 6 7 L 6 4 L 7 4 L 7 7 L 8 7 L 8 4 L 9 4 L 9 7 L 10 7 L 10 4 L 11 4 L 11 7 L 12 7 L 12 4 L 13 4 L 13 11 L 12 11 L 12 12 L 11 12 L 11 13 L 4 13 L 4 12 L 3 12 L 3 11 L 2 11 L 2 4 z " style="opacity:1;vector-effect:none;fill:#676767;fill-opacity:0.34901961;stroke:none;stroke-width:1;stroke-linecap:butt;stroke-linejoin:bevel;stroke-miterlimit:4;stroke-dasharray:none;stroke-dashoffset:0;stroke-opacity:1;paint-order:normal" />
</svg>
